X: 2
T: Presbyterian, The
Z: ceolachan
S: https://thesession.org/tunes/2208#setting20912
R: three-two
M: 3/2
L: 1/8
K: Gmin
|: G2B2 B2G2 cBAG | ^F2A2 A2F2 A4 | G2B2 ABcA Bcd2 | D2G2 G2B2 A2G2 :|
g2b2 b2g2 b2ag | f2a2 a2f2 a2gf | e2f2 g2f2 g2a2 | f4- f2e2 d2c2 |
B2d2 f2B2 d2f2 | A2c2 f2A2 c2f2 | G2B2 d2G2 B2d2 | ^F4- F2E2 D2C2 |
B,2D2 D2B,2 D2CB, | A,2C2 C2A,2 C4 | G,2B,2 A,2C2 B,2D2 | C2E2 D2^F2 G4 |]
